assets/icons/utility/open.svg

<?xml version="1.0"?><svg xmlns="http://www.w3.org/2000/svg" width="52" height="52" viewBox="0 0 52 52"><path fill="#fff" d="m8 35v-0.6 1.2-0.6z"></path><g fill="#fff"><path d="m46 2h-40c-2.2 0-4 1.8-4 4v36c0 2.2 1.8 4 4 4h12c0.6 0 1-0.4 1-1v-4c0-0.6-0.4-1-1-1h-8.5c-0.8 0-1.5-0.7-1.5-1.5v-25c0-0.8 0.7-1.5 1.5-1.5h33c0.8 0 1.5 0.7 1.5 1.5v25c0 0.8-0.7 1.5-1.5 1.5h-8.5c-0.6 0-1 0.4-1 1v4c0 0.6 0.4 1 1 1h12c2.2 0 4-1.8 4-4v-36c0-2.2-1.8-4-4-4z m-8.5 32.6l2.1-2.1c0.6-0.6 0.6-1.5 0-2.1l-12.6-12.6c-0.6-0.6-1.5-0.6-2.1 0l-12.5 12.5c-0.6 0.6-0.6 1.5 0 2.1l2.1 2.1c0.6 0.6 1.5 0.6 2.1 0l4.6-4.6c0.6-0.6 1.8-0.2 1.8 0.7v17.9c0 0.8 0.6 1.5 1.4 1.5h3c0.8 0 1.6-0.7 1.6-1.5v-17.9c0-0.9 1-1.3 1.7-0.7l4.6 4.7c0.6 0.5 1.6 0.5 2.2 0z"></path></g></svg>

<svg xmlns="http://www.w3.org/2000/svg" x="0px" y="0px"
	 width="52px" height="52px" viewBox="0 0 52 52" enable-background="new 0 0 52 52" xml:space="preserve">
<path fill="#FFFFFF" d="M8,35c0-0.2,0-0.4,0-0.6v1.2C8,35.4,8,35.2,8,35z"/>
<g>
	<path fill="#FFFFFF" d="M46,2H6C3.8,2,2,3.8,2,6v36c0,2.2,1.8,4,4,4h12c0.6,0,1-0.4,1-1v-4c0-0.6-0.4-1-1-1H9.5
		C8.7,40,8,39.3,8,38.5v-19v-6C8,12.7,8.7,12,9.5,12h33c0.8,0,1.5,0.7,1.5,1.5v6c0,0,0,15.7,0,15.9v3.1c0,0.8-0.7,1.5-1.5,1.5H34
		c-0.6,0-1,0.4-1,1v4c0,0.6,0.4,1,1,1h12c2.2,0,4-1.8,4-4V6C50,3.8,48.2,2,46,2z"/>
	<path fill="#FFFFFF" d="M37.5,34.6l2.1-2.1c0.6-0.6,0.6-1.5,0-2.1L27,17.8c-0.6-0.6-1.5-0.6-2.1,0L12.4,30.3
		c-0.6,0.6-0.6,1.5,0,2.1l2.1,2.1c0.6,0.6,1.5,0.6,2.1,0l4.6-4.6c0.6-0.6,1.8-0.2,1.8,0.7v17.9c0,0.8,0.6,1.5,1.4,1.5h3
		c0.8,0,1.6-0.7,1.6-1.5V30.6c0-0.9,1-1.3,1.7-0.7l4.6,4.7C35.9,35.1,36.9,35.1,37.5,34.6z"/>
</g>
</svg>
